img/logo.svg

<svg width="109" height="25" viewBox="0 0 109 25" fill="none" xmlns="http://www.w3.org/2000/svg">
<path fill-role="evenodd" clip-role="evenodd" d="M8.40642 0.80071C5.68063 0.35849 3.11552 2.21018 2.67708 4.93658L0.793919 16.6468C0.355478 19.3732 2.20974 21.9419 4.93553 22.3841L16.1243 24.1993C18.8501 24.6415 21.4152 22.7898 21.8536 20.0634L23.7368 8.35321C24.1752 5.62681 22.321 3.05814 19.5952 2.61592L8.40642 0.80071ZM8.03893 11.9093L8.03924 11.9073C8.16354 11.1308 8.28784 10.3542 8.41493 9.57805C8.74658 7.55266 10.5223 6.25395 12.6107 6.55374L12.6174 6.55471C13.4298 6.67135 14.268 6.79168 15.0233 7.08677C16.8 7.78103 17.7242 9.6237 17.3605 11.517C17.0336 13.2185 15.3943 14.5941 13.5863 14.61C12.958 14.6155 12.3214 14.497 11.6977 14.3808L11.6576 14.3734C11.1352 14.2761 10.809 13.7516 10.8933 13.2611C10.9804 12.7541 11.4617 12.4102 12.0184 12.4713C12.1894 12.4901 12.3601 12.516 12.5307 12.542C12.8061 12.5838 13.0813 12.6257 13.3577 12.6372C14.4248 12.6819 15.2544 11.9641 15.4116 10.8997C15.5506 9.95925 14.9084 9.00484 13.9199 8.76058C13.3521 8.62035 12.7668 8.52815 12.1842 8.47523C11.307 8.39555 10.5513 9.00926 10.4141 9.86017C10.1992 11.1931 9.98492 12.5262 9.77063 13.8592L9.76893 13.8697C9.60521 14.8882 9.44149 15.9066 9.2775 16.9249C9.1761 17.5547 8.69046 17.9297 8.1018 17.8358C7.544 17.7468 7.1881 17.2218 7.28422 16.6129C7.42067 15.7478 7.56023 14.8832 7.6998 14.0187L7.69986 14.0183C7.75684 13.6654 7.81381 13.3124 7.87057 12.9595C7.92686 12.6094 7.9829 12.2593 8.03893 11.9093ZM11.3198 16.4596C11.8183 16.5404 12.1558 17.0201 12.0736 17.531C11.9915 18.0419 11.5208 18.3904 11.0223 18.3096C10.5238 18.2287 10.1863 17.749 10.2685 17.2381C10.3507 16.7273 10.8213 16.3787 11.3198 16.4596Z" fill="#34B3E6"/>
<path d="M28.5522 15.8895V11.5104C28.5207 10.2794 28.9835 9.08768 29.836 8.20496C30.6885 7.32224 31.8585 6.82316 33.0812 6.82068C34.0983 6.76835 35.118 6.82939 36.1218 7.0027C38.433 7.57015 40.0036 9.73028 39.8428 12.1207C39.7355 14.4198 38.0867 16.3497 35.8454 16.7996C35.0532 16.9123 34.2518 16.9445 33.4533 16.896C32.7989 16.8616 32.2878 16.3138 32.2944 15.654C32.3112 14.9811 32.8489 14.4396 33.5171 14.4227C34.0699 14.4227 34.6334 14.4227 35.1862 14.3584C36.4336 14.1758 37.3528 13.0894 37.334 11.8201C37.3151 10.5507 36.364 9.49254 35.1118 9.34754C34.4041 9.29152 33.6932 9.29152 32.9855 9.34754C31.9076 9.4732 31.0965 10.3961 31.1037 11.489V20.5899C31.1332 20.9451 31.0149 21.2967 30.777 21.5607C30.5392 21.8246 30.2031 21.9772 29.8492 21.9819C29.4889 21.9859 29.1435 21.8375 28.897 21.5729C28.6504 21.3084 28.5253 20.9518 28.5522 20.5899V15.8895Z" fill="#495057"/>
<path d="M40.4849 9.47298C40.4849 8.84716 40.4849 8.21074 40.4849 7.57431C40.4605 7.2185 40.5879 6.86911 40.835 6.61389C41.082 6.35867 41.4253 6.22187 41.7786 6.23782C42.1231 6.23353 42.4534 6.37631 42.6878 6.63091C42.9222 6.8855 43.039 7.22818 43.0093 7.57431C43.0093 8.79413 43.0093 10.0033 43.0093 11.2231C42.9486 12.1699 43.415 13.0722 44.2195 13.5641C45.0239 14.0561 46.0329 14.0561 46.8374 13.5641C47.6418 13.0722 48.1082 12.1699 48.0475 11.2231C48.0475 10.0033 48.0475 8.79413 48.0475 7.57431C47.9905 7.10559 48.2 6.64441 48.5891 6.38175C48.9783 6.1191 49.4809 6.09968 49.8889 6.33156C50.2968 6.56343 50.5406 7.0071 50.5193 7.47885C50.5193 8.94263 50.5719 10.4064 50.4562 11.8596C50.1595 14.4848 47.8871 16.4231 45.2707 16.2827C42.5858 16.119 40.4996 13.8613 40.527 11.1489C40.4849 10.5867 40.4849 10.0352 40.4849 9.47298Z" fill="#495057"/>
<path d="M60.5669 7.81859C60.9738 7.48778 61.3992 7.18106 61.8409 6.89994C63.3797 5.98583 65.2818 5.97196 66.8333 6.86354C68.3848 7.75511 69.3511 9.41726 69.3695 11.2262C69.3695 12.4653 69.3695 13.7044 69.3695 14.9435C69.3959 15.2913 69.2779 15.6344 69.0439 15.8901C68.81 16.1457 68.4814 16.2905 68.1375 16.2894C67.7936 16.2968 67.4629 16.1555 67.2278 15.9007C66.9928 15.646 66.8756 15.3018 66.9056 14.9542C66.9056 13.7151 66.9056 12.4759 66.9056 11.2475C66.8884 9.83652 65.7589 8.70024 64.368 8.69452C63.6987 8.69451 63.057 8.96495 62.5848 9.44605C62.1126 9.92714 61.8487 10.5793 61.8515 11.2582C61.8515 12.4973 61.8515 13.7257 61.8515 14.9648C61.8515 15.661 61.2952 16.2253 60.609 16.2253C59.9228 16.2253 59.3665 15.661 59.3665 14.9648V11.2155C59.3699 9.9029 58.372 8.81123 57.0816 8.71588C55.8463 8.58493 54.7016 9.38788 54.3861 10.6066C54.3425 10.7991 54.3248 10.9968 54.3334 11.1941C54.3334 12.4225 54.3334 13.6616 54.3334 14.9008C54.3716 15.2915 54.2281 15.678 53.9452 15.9461C53.6624 16.2141 53.2726 16.3332 52.8909 16.2681C52.3332 16.2691 51.8714 15.8287 51.838 15.2639C51.7553 13.6657 51.7729 12.0637 51.8906 10.4677C52.0745 8.55978 53.3969 6.96343 55.2179 6.4513C57.0254 5.8068 59.0373 6.29099 60.3668 7.69041L60.5669 7.81859Z" fill="#495057"/>
<path d="M71.2608 15.8666C71.2608 14.4017 71.2608 12.9475 71.2608 11.4826C71.193 9.34695 72.6873 7.47524 74.7947 7.05621C76.6147 6.5709 78.5519 6.78701 80.2185 7.66126C81.6792 8.58463 82.564 10.1862 82.564 11.9072C82.564 13.6282 81.6792 15.2298 80.2185 16.1532C79.4318 16.6465 78.5221 16.9112 77.592 16.9175C77.1222 16.9175 76.6525 16.9175 76.1827 16.9175C75.5593 16.8914 75.0567 16.4009 75.0189 15.7817C74.9554 15.1581 75.3984 14.5959 76.0226 14.5079C76.5264 14.4597 77.0325 14.4385 77.5386 14.4442C78.305 14.442 79.0294 14.096 79.5101 13.5027C79.9909 12.9094 80.1766 12.132 80.0156 11.3871C79.8123 10.3787 78.9902 9.60813 77.9657 9.4658C77.1491 9.38616 76.3267 9.38616 75.5101 9.4658C74.4802 9.59643 73.7181 10.4827 73.7484 11.5145C73.7484 14.5716 73.7484 17.6181 73.7484 20.6751C73.7703 21.0915 73.5806 21.4911 73.2433 21.7389C72.906 21.9866 72.4661 22.0496 72.0722 21.9065C71.5604 21.7101 71.2332 21.2093 71.2608 20.6645C71.2608 19.0511 71.2608 17.4588 71.2608 15.8666Z" fill="#495057"/>
<path d="M83.1975 8.67648V2.47597C83.1646 2.12867 83.2787 1.78347 83.5123 1.52398C83.7459 1.26448 84.0777 1.11435 84.4272 1.10993C84.784 1.10867 85.125 1.25702 85.367 1.5188C85.609 1.78059 85.7297 2.13174 85.6997 2.48664C85.6997 6.64166 85.6997 10.8002 85.6997 14.9624C85.7263 15.5534 85.3405 16.0845 84.7694 16.243C84.1639 16.4134 83.5272 16.1003 83.2937 15.5173C83.2237 15.3223 83.1911 15.116 83.1975 14.909V8.67648Z" fill="#495057"/>
<path d="M95.7215 2.37462C96.4148 2.36842 96.9865 2.92029 97.0096 3.61811C97.0041 4.31792 96.4482 4.88714 95.7535 4.90447C95.3047 4.90447 94.89 4.66338 94.6656 4.27201C94.4412 3.88064 94.4412 3.39845 94.6656 3.00709C94.89 2.61572 95.3047 2.37462 95.7535 2.37462H95.7215Z" fill="#495057"/>
<path d="M97.0043 11.204V14.9126C97.0481 15.3889 96.8197 15.8491 96.4146 16.1009C96.0095 16.3526 95.4974 16.3526 95.0923 16.1009C94.6872 15.8491 94.4588 15.3889 94.5027 14.9126V7.53819C94.4762 7.18824 94.5949 6.84286 94.8308 6.58381C95.0666 6.32477 95.3986 6.17508 95.7481 6.17019C96.0976 6.16615 96.4327 6.3097 96.6715 6.5658C96.9104 6.8219 97.0312 7.16699 97.0043 7.51682V11.204Z" fill="#495057"/>
<path d="M93.0833 14.8909C93.1233 15.4342 92.8228 15.9451 92.3301 16.1714C91.8646 16.3893 91.3126 16.2816 90.9617 15.9046C90.2615 15.2217 89.572 14.5175 88.84 13.7705L87.3867 12.3086C87.0838 12.0788 86.9058 11.7192 86.9058 11.3376C86.9058 10.956 87.0838 10.5965 87.3867 10.3666L90.8662 6.86663C91.0895 6.61843 91.4019 6.46992 91.7343 6.4539C92.0668 6.43788 92.3919 6.55568 92.6378 6.78126C92.8921 7.0022 93.0384 7.32353 93.0384 7.66159C93.0384 7.99964 92.8921 8.32097 92.6378 8.54191C91.927 9.28886 91.195 10.0038 90.5161 10.7294C90.0493 11.1989 90.0493 11.4763 90.5161 11.9458C91.2375 12.6714 91.9588 13.3757 92.6378 14.08C92.8204 14.3298 92.9702 14.6024 93.0833 14.8909Z" fill="#495057"/>
<path d="M98.494 9.95416C99.0644 7.55956 101.3 5.95498 103.732 6.19356C106.073 6.38885 107.97 8.18843 108.303 10.5311C108.319 10.7123 108.319 10.8947 108.303 11.0759C108.303 12.3936 108.303 13.7076 108.303 15.0182C108.314 15.3551 108.188 15.6821 107.954 15.9225C107.719 16.1629 107.397 16.2956 107.062 16.2895C106.728 16.2925 106.408 16.1588 106.174 15.9191C105.94 15.6794 105.813 15.3542 105.821 15.0182V11.2255C105.735 9.88222 104.628 8.83722 103.292 8.83722C101.956 8.83722 100.85 9.88222 100.763 11.2255V14.9327C100.784 15.2817 100.66 15.6236 100.42 15.8768C100.181 16.13 99.8483 16.2717 99.5013 16.2681C99.1599 16.269 98.8334 16.1267 98.6001 15.8755C98.3668 15.6242 98.2477 15.2866 98.2713 14.9434V12.8921C98.2428 11.9076 98.3175 10.9229 98.494 9.95416Z" fill="#495057"/>
</svg>

<svg width="109" height="25" fill="none" xmlns="http://www.w3.org/2000/svg"><path d="M8.406.8a4.992 4.992 0 00-5.729 4.137L.794 16.647a5.008 5.008 0 004.142 5.737L16.124 24.2a4.992 4.992 0 005.73-4.136l1.883-11.71a5.008 5.008 0 00-4.142-5.737L8.406.8zM8.04 11.91v-.003c.125-.776.249-1.553.376-2.329.332-2.025 2.107-3.324 4.196-3.024h.006c.813.117 1.651.238 2.406.533 1.777.694 2.701 2.537 2.337 4.43-.326 1.702-1.966 3.077-3.774 3.093-.628.006-1.265-.113-1.888-.23l-.04-.007c-.523-.097-.849-.621-.765-1.112.087-.507.569-.85 1.125-.79.171.02.342.045.513.071.275.042.55.084.827.095 1.067.045 1.896-.673 2.054-1.737.139-.94-.504-1.895-1.492-2.14a11.663 11.663 0 00-1.736-.285 1.64 1.64 0 00-1.77 1.385c-.215 1.333-.43 2.666-.643 4l-.002.01-.492 3.055c-.1.63-.587 1.005-1.175.91-.558-.088-.914-.613-.818-1.222.137-.865.276-1.73.416-2.594l.17-1.06.169-1.05zm3.28 4.55c.5.08.837.56.755 1.071a.924.924 0 01-1.052.779.927.927 0 01-.754-1.072.924.924 0 011.052-.778z" fill="#34B3E6"/><path d="M28.552 15.89v-4.38a4.59 4.59 0 011.284-3.305 4.524 4.524 0 013.245-1.384 13.725 13.725 0 013.04.182c2.312.567 3.883 2.727 3.722 5.118a5 5 0 01-3.998 4.679c-.792.112-1.593.145-2.392.096a1.228 1.228 0 01-1.159-1.242 1.259 1.259 0 011.223-1.231c.553 0 1.116 0 1.67-.065a2.522 2.522 0 002.147-2.538 2.52 2.52 0 00-2.222-2.472 13.472 13.472 0 00-2.127 0 2.136 2.136 0 00-1.881 2.141v9.1a1.29 1.29 0 01-.327.972 1.272 1.272 0 01-1.88.012 1.3 1.3 0 01-.345-.983v-4.7zM40.485 9.473V7.574a1.257 1.257 0 01.35-.96c.247-.255.59-.392.944-.376.344-.004.674.138.909.393.234.255.351.597.321.943v3.65c-.06.946.406 1.848 1.21 2.34a2.506 2.506 0 002.618 0 2.552 2.552 0 001.21-2.34v-3.65c-.056-.468.153-.93.542-1.192.39-.263.892-.282 1.3-.05.408.231.652.675.63 1.147 0 1.464.053 2.927-.063 4.38-.297 2.626-2.569 4.564-5.185 4.424-2.685-.164-4.771-2.422-4.744-5.134-.042-.562-.042-1.114-.042-1.676zM60.567 7.819c.407-.331.832-.638 1.274-.92a4.94 4.94 0 014.992-.035 5.086 5.086 0 012.537 4.362v3.717c.026.348-.092.691-.326.947s-.563.4-.906.4a1.202 1.202 0 01-.91-.39 1.24 1.24 0 01-.322-.946v-3.707c-.018-1.41-1.147-2.547-2.538-2.552-.67 0-1.311.27-1.783.751a2.572 2.572 0 00-.733 1.812v3.707c0 .696-.557 1.26-1.243 1.26a1.252 1.252 0 01-1.242-1.26v-3.75c.003-1.312-.995-2.404-2.285-2.5a2.519 2.519 0 00-2.696 1.892c-.044.192-.061.39-.053.587v3.707a1.27 1.27 0 01-.388 1.045 1.231 1.231 0 01-1.054.322 1.06 1.06 0 01-1.053-1.004c-.083-1.598-.065-3.2.053-4.796.184-1.908 1.506-3.505 3.327-4.017a4.847 4.847 0 015.149 1.24l.2.128zM71.26 15.867v-4.384a4.379 4.379 0 013.535-4.427 7.513 7.513 0 015.424.605 5.025 5.025 0 012.345 4.246 5.025 5.025 0 01-2.345 4.246 5.008 5.008 0 01-2.627.765h-1.41a1.214 1.214 0 01-1.163-1.136 1.17 1.17 0 011.004-1.274c.503-.048 1.01-.07 1.516-.064a2.547 2.547 0 001.971-.941c.48-.594.667-1.371.506-2.116a2.428 2.428 0 00-2.05-1.921 12.65 12.65 0 00-2.456 0 2.01 2.01 0 00-1.762 2.049v9.16a1.24 1.24 0 01-.505 1.064c-.337.248-.777.31-1.17.168a1.263 1.263 0 01-.812-1.242v-4.798zM83.198 8.676v-6.2a1.247 1.247 0 011.23-1.366A1.274 1.274 0 0185.7 2.487v12.475a1.27 1.27 0 01-.93 1.281 1.23 1.23 0 01-1.476-.726 1.65 1.65 0 01-.096-.608V8.676zM95.722 2.375a1.282 1.282 0 011.288 1.243 1.293 1.293 0 01-1.257 1.286c-.448 0-.863-.24-1.087-.632a1.273 1.273 0 010-1.265c.224-.391.639-.632 1.088-.632h-.032zM97.004 11.204v3.709c.044.476-.184.936-.59 1.188a1.252 1.252 0 01-1.322 0 1.263 1.263 0 01-.59-1.188V7.538c-.026-.35.093-.695.329-.954.236-.26.568-.409.917-.414.35-.004.685.14.923.396.24.256.36.601.333.95v3.688zM93.083 14.89c.04.544-.26 1.055-.753 1.281a1.183 1.183 0 01-1.368-.266c-.7-.683-1.39-1.387-2.122-2.134l-1.453-1.462a1.219 1.219 0 010-1.942l3.48-3.5a1.249 1.249 0 011.77-.086 1.166 1.166 0 010 1.76c-.71.748-1.442 1.463-2.12 2.188-.468.47-.468.747 0 1.217.72.725 1.442 1.43 2.12 2.134.183.25.333.522.446.81zM98.494 9.954c.57-2.394 2.806-3.999 5.238-3.76a5.053 5.053 0 014.571 4.337c.016.181.016.364 0 .545v3.942c.011.337-.115.664-.349.904-.235.24-.557.374-.892.367a1.225 1.225 0 01-.888-.37 1.247 1.247 0 01-.353-.9v-3.793a2.542 2.542 0 00-2.529-2.389 2.543 2.543 0 00-2.529 2.389v3.707c.021.349-.103.69-.343.944a1.245 1.245 0 01-.919.391c-.341.001-.668-.141-.9-.393a1.245 1.245 0 01-.33-.932v-2.05c-.028-.985.046-1.97.223-2.939z" fill="#495057"/></svg>
